assets/settings_back.svg

<svg fill="none" height="14" viewBox="0 0 16 14" width="16" xmlns="http://www.w3.org/2000/svg"><path d="m6.39745.302073c-.66998.669972-1.33995 1.339947-2.01256 2.012557l-3.938063 3.93806c-.092319.09232-.163536.19783-.211015.31125-.063305.14243-.092319.29542-.089681.4484.002636.26641.102869.53545.303333.73328.669976.66997 1.339946 1.33995 2.012556 2.01255l3.93543 3.93803c.39037.3904 1.10782.4194 1.49293 0 .38774-.422.41675-1.0761 0-1.4929l-4.14645-4.14643h9.37437c.5512 0 1.1052.00791 1.6564 0h.0238c.5512 0 1.0814-.48534 1.055-1.05508-.0263-.57237-.4642-1.05507-1.055-1.05507h-11.05984c.07122-.07122.14243-.14243.21365-.21365l3.20479-3.20479c.2453-.24531.48797-.48797.73328-.73328.39037-.39038.41939-1.107825 0-1.492927-.42203-.3877397-1.07618-.416754-1.49293 0z" fill="#fff"/></svg>

<svg width="16" height="14" viewBox="0 0 16 14" fill="none" xmlns="http://www.w3.org/2000/svg">
<path d="M6.39745 0.302073C5.72747 0.972045 5.0575 1.64202 4.38489 2.31463L0.446827 6.25269C0.354508 6.34501 0.283291 6.45052 0.235812 6.56394C0.172507 6.70637 0.143493 6.85936 0.146131 7.01234C0.148767 7.27875 0.249 7.54779 0.449464 7.74562C1.11944 8.41559 1.78941 9.08557 2.46202 9.75817L6.39745 13.6962C6.78782 14.0866 7.50527 14.1156 7.89038 13.6962C8.27812 13.2742 8.30713 12.6201 7.89038 12.2033L3.74393 8.05687H13.1183C13.6695 8.05687 14.2235 8.06478 14.7747 8.05687H14.7985C15.3497 8.05687 15.8799 7.57153 15.8535 7.00179C15.8272 6.42942 15.3893 5.94672 14.7985 5.94672H3.73866C3.80988 5.8755 3.88109 5.80429 3.95231 5.73307L7.1571 2.52828C7.4024 2.28297 7.64507 2.04031 7.89038 1.795C8.28075 1.40462 8.30977 0.687175 7.89038 0.302073C7.46835 -0.0856667 6.8142 -0.114681 6.39745 0.302073Z" fill="white"/>
</svg>
